src/img/logo-itau.svg

<svg width="50" height="50" viewBox="0 0 50 50" fill="none" xmlns="http://www.w3.org/2000/svg">
<path fill-rule="evenodd" clip-rule="evenodd" d="M8.3364 0H41.6662C46.273 0 50 3.73661 50 8.33743V41.6718C50 46.2724 46.273 50 41.6662 50H8.3364C3.7274 50 0 46.2724 0 41.6718V8.33743C0 3.73661 3.7274 0 8.3364 0Z" fill="#003399"/>
<path fill-rule="evenodd" clip-rule="evenodd" d="M4.19922 41.3813H8.01601V24.9062H4.19922V41.3813Z" fill="#FFFF00"/>
<path fill-rule="evenodd" clip-rule="evenodd" d="M27.6044 36.894C27.6044 37.0906 27.5859 37.3142 27.5412 37.5164C27.5355 37.5419 27.5103 37.6288 27.503 37.6468C27.4951 37.6678 27.4866 37.689 27.4776 37.7094C27.138 38.5156 26.2394 39.2739 25.0313 39.2739C23.9789 39.2739 23.2531 38.7257 23.2531 37.6868C23.2531 36.523 24.2419 35.9238 25.7166 35.6952C26.0619 35.6408 26.4415 35.6074 26.8473 35.5921C27.0927 35.5834 27.3446 35.5804 27.6044 35.5846V36.894ZM25.4184 28.7344C23.0716 28.7344 21.3201 29.3472 20.3691 29.9027L21.0881 32.3332C21.9516 31.809 23.4386 31.338 24.7812 31.338C27.0202 31.3319 27.4937 32.4753 27.4937 33.0547V33.1873C22.5311 33.1666 19.4658 34.7849 19.4658 37.9813C19.4658 39.862 20.9498 41.7612 23.6874 41.7612C25.3187 41.7612 26.696 41.1669 27.5317 40.1727H27.5723L27.9911 41.4572H31.107V34.1459C31.107 31.1742 29.6538 28.7344 25.4184 28.7344Z" fill="#FFFF00"/>
<path fill-rule="evenodd" clip-rule="evenodd" d="M41.9499 28.9309V36.2838C41.9499 36.5794 41.9133 36.8435 41.8192 37.0808C41.5082 37.8358 40.7403 38.6905 39.4774 38.6905C37.8893 38.6905 37.1936 37.5192 37.1936 35.561V28.9229H33.3965V36.2583C33.3965 37.2405 33.5148 38.0747 33.7501 38.7624C33.9857 39.4504 34.3065 40.0207 34.7146 40.4658C35.1233 40.9146 35.6137 41.2416 36.1835 41.448C36.7535 41.6539 37.3839 41.7581 38.0716 41.7581C38.67 41.7581 39.2004 41.6836 39.6625 41.5372C40.1244 41.3916 40.5235 41.2153 40.8584 41.0074C41.1934 40.803 41.4742 40.579 41.7008 40.3375C41.9267 40.0971 42.1048 39.8814 42.2317 39.6914L42.7207 41.4731H45.8011V28.9309H41.9499Z" fill="#FFFF00"/>
<path fill-rule="evenodd" clip-rule="evenodd" d="M11.7023 24.9062V29.0486H9.92676V31.8775H11.7023V36.9217C11.7023 38.5896 12.0397 39.8425 12.77 40.6051C13.3967 41.2714 14.4973 41.7645 15.8313 41.7645C16.9758 41.7645 17.4285 41.5949 17.942 41.3979V38.5166C17.8366 38.5654 17.5366 38.6242 17.1465 38.6242C15.7973 38.6242 15.4844 37.7925 15.4844 36.2719V31.8775H17.9003V29.0486H15.4844V24.9062H11.7023Z" fill="#FFFF00"/>
<path fill-rule="evenodd" clip-rule="evenodd" d="M40.4709 24.9062L38.167 28.163H40.8337L44.083 24.9062H40.4709Z" fill="#FFFF00"/>
</svg>

<svg width="50" height="50" fill="none" xmlns="http://www.w3.org/2000/svg"><path fill-rule="evenodd" clip-rule="evenodd" d="M8.336 0h33.33C46.273 0 50 3.737 50 8.337v33.335c0 4.6-3.727 8.328-8.334 8.328H8.336A8.328 8.328 0 010 41.672V8.337C0 3.737 3.727 0 8.336 0z" fill="#039"/><path fill-rule="evenodd" clip-rule="evenodd" d="M4.2 41.381h3.816V24.906H4.199v16.475zm23.404-4.487c0 .197-.018.42-.063.622a1.222 1.222 0 01-.064.193c-.339.807-1.238 1.565-2.446 1.565-1.052 0-1.778-.548-1.778-1.587 0-1.164.989-1.763 2.464-1.992a9.666 9.666 0 011.13-.103c.246-.009.498-.012.757-.007v1.309zm-2.186-8.16c-2.346 0-4.098.613-5.049 1.169l.72 2.43c.863-.524 2.35-.995 3.692-.995 2.24-.006 2.713 1.137 2.713 1.717v.132c-4.963-.02-8.028 1.598-8.028 4.794 0 1.881 1.484 3.78 4.221 3.78 1.632 0 3.009-.594 3.845-1.588h.04l.42 1.284h3.115v-7.311c0-2.972-1.453-5.412-5.689-5.412zm16.532.196v7.354c0 .295-.037.56-.13.797-.312.755-1.08 1.61-2.343 1.61-1.588 0-2.283-1.172-2.283-3.13v-6.638h-3.797v7.335c0 .982.118 1.817.353 2.504.236.688.556 1.259.965 1.704.408.449.899.776 1.468.982.57.206 1.2.31 1.889.31a5.267 5.267 0 002.786-.75c.335-.205.616-.429.843-.67.226-.24.404-.457.53-.647l.49 1.782h3.08V28.931H41.95zm-30.248-4.024v4.143H9.927v2.829h1.775v5.044c0 1.668.338 2.92 1.068 3.683.627.666 1.727 1.16 3.061 1.16 1.145 0 1.598-.17 2.111-.367v-2.881c-.105.048-.405.107-.796.107-1.349 0-1.662-.832-1.662-2.352v-4.394H17.9v-2.83h-2.416v-4.142h-3.782zm28.768 0l-2.303 3.257h2.667l3.249-3.257h-3.612z" fill="#FF0"/></svg>
